src/assets/img/icons/mask/icon-partner-bw.svg

<svg width="130" height="55" viewBox="0 0 130 55" fill="none" xmlns="http://www.w3.org/2000/svg">
<path d="M0 23.1006C0.34912 22.0513 0.785521 21.002 1.13464 19.9527C4.80041 7.27387 16.8451 -1.03297 30.0244 0.103754C42.4181 1.0656 53.1536 11.2961 54.5501 23.4503C56.1211 37.3534 48.4405 49.6824 35.6976 53.7047C34.4756 54.0545 33.2537 54.4917 32.0318 54.9289C28.8897 54.9289 25.6603 54.9289 22.5183 54.9289C21.7327 54.5791 21.0345 54.2294 20.249 53.967C10.2991 50.9066 3.9276 44.3486 1.04736 34.4678C0.785521 33.506 0.34912 32.6316 0.0872801 31.6697C0 28.7842 0 25.9861 0 23.1006ZM27.3187 50.9941C40.4107 51.0815 50.9716 40.6761 51.1461 27.6475C51.2334 14.7063 40.6725 3.95113 27.7551 3.86369C14.5758 3.77625 4.10216 14.0942 4.01488 27.2103C3.9276 40.4138 14.2267 50.9066 27.3187 50.9941Z" fill="#4D4D5D"/>
<path d="M0 23.1006C0.34912 22.0513 0.785521 21.002 1.13464 19.9527C4.80041 7.27387 16.8451 -1.03297 30.0244 0.103754C42.4181 1.0656 53.1536 11.2961 54.5501 23.4503C56.1211 37.3534 48.4405 49.6824 35.6976 53.7047C34.4756 54.0545 33.2537 54.4917 32.0318 54.9289C28.8897 54.9289 25.6603 54.9289 22.5183 54.9289C21.7327 54.5791 21.0345 54.2294 20.249 53.967C10.2991 50.9066 3.9276 44.3486 1.04736 34.4678C0.785521 33.506 0.34912 32.6316 0.0872801 31.6697C0 28.7842 0 25.9861 0 23.1006ZM27.3187 50.9941C40.4107 51.0815 50.9716 40.6761 51.1461 27.6475C51.2334 14.7063 40.6725 3.95113 27.7551 3.86369C14.5758 3.77625 4.10216 14.0942 4.01488 27.2103C3.9276 40.4138 14.2267 50.9066 27.3187 50.9941Z" fill="url(#paint0_linear)" fill-opacity="0.4"/>
<path d="M57.4303 42.9496C60.2233 40.4138 62.4053 38.4901 64.9364 36.3041C65.4601 36.7413 66.682 37.7032 68.0785 38.9273C69.3877 37.3534 70.5223 35.9543 72.1806 34.0307C70.7842 33.1563 69.1258 32.0195 67.2057 30.7954C66.7693 31.1451 65.7219 32.107 64.3254 33.2437C62.7544 31.1451 61.0961 28.9591 59.4377 26.7731C60.5724 25.7238 62.5798 23.975 64.8491 21.9639C65.5473 22.576 66.682 23.5378 68.0785 24.762C69.475 23.2755 70.6969 21.9639 72.1806 20.39C70.6096 19.0784 69.0385 17.8542 67.3802 16.5426C66.8565 16.9798 65.7219 17.9416 64.2381 19.1658C62.4053 16.7175 60.4851 14.3566 58.8268 12.1706C64.5873 12.1706 71.046 11.6459 77.4174 12.3454C82.567 12.9575 84.6617 19.1658 81.7814 23.4504C81.2578 24.2373 80.4722 24.9369 79.8613 25.6364C80.0358 25.9861 80.1231 26.3359 80.2977 26.4233C84.8363 29.2214 86.4073 32.2818 85.2726 36.2167C84.138 40.2389 80.9959 42.6873 76.1955 42.8621C70.1732 43.1245 64.1509 42.9496 57.4303 42.9496Z" fill="#4D4D5D"/>
<path d="M57.4303 42.9496C60.2233 40.4138 62.4053 38.4901 64.9364 36.3041C65.4601 36.7413 66.682 37.7032 68.0785 38.9273C69.3877 37.3534 70.5223 35.9543 72.1806 34.0307C70.7842 33.1563 69.1258 32.0195 67.2057 30.7954C66.7693 31.1451 65.7219 32.107 64.3254 33.2437C62.7544 31.1451 61.0961 28.9591 59.4377 26.7731C60.5724 25.7238 62.5798 23.975 64.8491 21.9639C65.5473 22.576 66.682 23.5378 68.0785 24.762C69.475 23.2755 70.6969 21.9639 72.1806 20.39C70.6096 19.0784 69.0385 17.8542 67.3802 16.5426C66.8565 16.9798 65.7219 17.9416 64.2381 19.1658C62.4053 16.7175 60.4851 14.3566 58.8268 12.1706C64.5873 12.1706 71.046 11.6459 77.4174 12.3454C82.567 12.9575 84.6617 19.1658 81.7814 23.4504C81.2578 24.2373 80.4722 24.9369 79.8613 25.6364C80.0358 25.9861 80.1231 26.3359 80.2977 26.4233C84.8363 29.2214 86.4073 32.2818 85.2726 36.2167C84.138 40.2389 80.9959 42.6873 76.1955 42.8621C70.1732 43.1245 64.1509 42.9496 57.4303 42.9496Z" fill="url(#paint1_linear)" fill-opacity="0.4"/>
<path d="M113.29 28.6967C115.122 22.6633 116.693 17.5043 118.352 12.2579C120.272 12.2579 121.93 12.2579 124.2 12.2579C122.192 18.9034 120.272 25.2865 118.265 31.7571C115.035 31.7571 112.068 31.7571 109.013 31.7571C107.704 29.0464 106.394 26.4232 104.911 23.4503C101.419 30.0083 100.198 37.0035 95.4844 42.5997C91.4695 32.7189 88.6766 22.6633 85.6218 12.3453C87.9783 12.3453 89.8112 12.3453 92.0805 12.3453C93.6515 17.3294 95.2226 22.4884 96.7936 27.56C97.0555 27.6474 97.3173 27.7348 97.5791 27.7348C99.412 22.6633 101.245 17.5043 103.078 12.6077C105.871 11.4709 106.656 13.1323 107.442 14.8811C109.187 19.2531 111.02 23.6251 113.29 28.6967Z" fill="#4D4D5D"/>
<path d="M113.29 28.6967C115.122 22.6633 116.693 17.5043 118.352 12.2579C120.272 12.2579 121.93 12.2579 124.2 12.2579C122.192 18.9034 120.272 25.2865 118.265 31.7571C115.035 31.7571 112.068 31.7571 109.013 31.7571C107.704 29.0464 106.394 26.4232 104.911 23.4503C101.419 30.0083 100.198 37.0035 95.4844 42.5997C91.4695 32.7189 88.6766 22.6633 85.6218 12.3453C87.9783 12.3453 89.8112 12.3453 92.0805 12.3453C93.6515 17.3294 95.2226 22.4884 96.7936 27.56C97.0555 27.6474 97.3173 27.7348 97.5791 27.7348C99.412 22.6633 101.245 17.5043 103.078 12.6077C105.871 11.4709 106.656 13.1323 107.442 14.8811C109.187 19.2531 111.02 23.6251 113.29 28.6967Z" fill="url(#paint2_linear)" fill-opacity="0.4"/>
<path d="M103.427 42.1625C103.427 40.2388 103.34 38.9272 103.427 37.703C103.689 35.0798 105.085 33.5059 107.878 33.5059C113.464 33.5059 119.05 33.4185 124.723 33.5059C127.604 33.5933 128.913 35.0798 129 37.7905C129.087 40.2388 128.127 42.1625 125.422 42.1625C118.265 42.2499 111.108 42.1625 103.427 42.1625ZM107.355 38.7523C108.227 41.463 109.798 41.0258 111.98 40.0639C110.322 39.3644 109.013 38.9272 107.791 38.4026C109.013 37.5282 110.235 36.6538 111.282 35.8668C108.402 34.4677 107.18 35.1673 107.355 38.7523ZM113.639 36.2166L113.813 36.0417C113.551 37.0035 112.766 38.2277 113.028 39.0146C114.511 42.6871 117.479 38.8398 119.312 39.9765C120.097 38.4026 120.97 36.9161 122.105 34.6426C120.359 35.4296 119.225 35.9542 118.003 36.4789C116.868 35.2547 115.384 34.118 113.639 36.2166ZM126.12 39.889C126.556 37.8779 127.342 35.6045 124.287 35.0798C124.985 36.9161 125.596 38.4026 126.12 39.889Z" fill="#4D4D5D"/>
<path d="M103.427 42.1625C103.427 40.2388 103.34 38.9272 103.427 37.703C103.689 35.0798 105.085 33.5059 107.878 33.5059C113.464 33.5059 119.05 33.4185 124.723 33.5059C127.604 33.5933 128.913 35.0798 129 37.7905C129.087 40.2388 128.127 42.1625 125.422 42.1625C118.265 42.2499 111.108 42.1625 103.427 42.1625ZM107.355 38.7523C108.227 41.463 109.798 41.0258 111.98 40.0639C110.322 39.3644 109.013 38.9272 107.791 38.4026C109.013 37.5282 110.235 36.6538 111.282 35.8668C108.402 34.4677 107.18 35.1673 107.355 38.7523ZM113.639 36.2166L113.813 36.0417C113.551 37.0035 112.766 38.2277 113.028 39.0146C114.511 42.6871 117.479 38.8398 119.312 39.9765C120.097 38.4026 120.97 36.9161 122.105 34.6426C120.359 35.4296 119.225 35.9542 118.003 36.4789C116.868 35.2547 115.384 34.118 113.639 36.2166ZM126.12 39.889C126.556 37.8779 127.342 35.6045 124.287 35.0798C124.985 36.9161 125.596 38.4026 126.12 39.889Z" fill="url(#paint3_linear)" fill-opacity="0.4"/>
<path d="M113.639 36.2166C113.901 36.2166 114.25 36.1292 114.511 36.3041C115.384 36.8287 116.17 37.4408 116.955 38.0529C116.519 38.4901 115.995 38.9273 115.559 39.3645C114.948 38.5775 114.337 37.7031 113.813 36.9162C113.639 36.7413 113.726 36.3915 113.726 36.0417L113.639 36.2166Z" fill="#4D4D5D"/>
<path d="M113.639 36.2166C113.901 36.2166 114.25 36.1292 114.511 36.3041C115.384 36.8287 116.17 37.4408 116.955 38.0529C116.519 38.4901 115.995 38.9273 115.559 39.3645C114.948 38.5775 114.337 37.7031 113.813 36.9162C113.639 36.7413 113.726 36.3915 113.726 36.0417L113.639 36.2166Z" fill="url(#paint4_linear)" fill-opacity="0.4"/>
<path d="M23.1292 44.0863C24.9621 42.0751 26.184 40.7635 27.4932 39.3645C28.977 40.5886 30.1116 41.5505 31.77 42.8621C32.9046 41.3756 33.952 40.064 35.4357 38.2277C34.2138 37.4408 32.6428 36.3915 30.7226 35.1673C30.2862 35.5171 29.0643 36.4789 27.8424 37.4408C26.3586 35.9543 24.9621 34.3804 23.3038 32.719C24.613 31.6697 26.184 30.2707 28.0169 28.6967C28.7152 29.3088 29.9371 30.2707 31.4208 31.5823C32.7301 30.1832 33.952 28.7842 35.0866 27.56C33.8647 26.161 32.7301 24.7619 31.4208 23.2754C29.8498 24.587 28.7152 25.5489 27.2314 26.7731C25.8349 25.1991 24.4384 23.7126 23.1292 22.1387C24.7003 20.7397 26.3586 19.2532 28.1915 17.6793C28.977 18.2913 30.1116 19.2532 31.6827 20.5648C32.9919 19.1657 34.3011 17.8541 35.3485 16.7174C33.952 15.1435 32.7301 13.8319 31.3336 12.3454C30.1116 13.3947 29.0643 14.2691 27.5805 15.5807C26.184 14.2691 24.7876 12.9575 22.8674 11.1212C27.5805 10.4217 31.77 10.1594 35.6976 11.3835C41.9817 13.3947 43.8146 20.215 39.7125 25.2866C39.1888 25.8987 38.5778 26.5107 37.8796 27.2977C38.6651 28.1721 39.5379 28.9591 40.2361 29.746C44.6001 35.0799 41.8072 43.037 34.9121 43.9988C31.2463 44.5235 27.4932 44.0863 23.1292 44.0863Z" fill="#4D4D5D"/>
<path d="M23.1292 44.0863C24.9621 42.0751 26.184 40.7635 27.4932 39.3645C28.977 40.5886 30.1116 41.5505 31.77 42.8621C32.9046 41.3756 33.952 40.064 35.4357 38.2277C34.2138 37.4408 32.6428 36.3915 30.7226 35.1673C30.2862 35.5171 29.0643 36.4789 27.8424 37.4408C26.3586 35.9543 24.9621 34.3804 23.3038 32.719C24.613 31.6697 26.184 30.2707 28.0169 28.6967C28.7152 29.3088 29.9371 30.2707 31.4208 31.5823C32.7301 30.1832 33.952 28.7842 35.0866 27.56C33.8647 26.161 32.7301 24.7619 31.4208 23.2754C29.8498 24.587 28.7152 25.5489 27.2314 26.7731C25.8349 25.1991 24.4384 23.7126 23.1292 22.1387C24.7003 20.7397 26.3586 19.2532 28.1915 17.6793C28.977 18.2913 30.1116 19.2532 31.6827 20.5648C32.9919 19.1657 34.3011 17.8541 35.3485 16.7174C33.952 15.1435 32.7301 13.8319 31.3336 12.3454C30.1116 13.3947 29.0643 14.2691 27.5805 15.5807C26.184 14.2691 24.7876 12.9575 22.8674 11.1212C27.5805 10.4217 31.77 10.1594 35.6976 11.3835C41.9817 13.3947 43.8146 20.215 39.7125 25.2866C39.1888 25.8987 38.5778 26.5107 37.8796 27.2977C38.6651 28.1721 39.5379 28.9591 40.2361 29.746C44.6001 35.0799 41.8072 43.037 34.9121 43.9988C31.2463 44.5235 27.4932 44.0863 23.1292 44.0863Z" fill="url(#paint5_linear)" fill-opacity="0.4"/>
<path d="M15.1867 21.789C16.4087 20.7397 17.2815 20.0402 18.3288 19.1658C19.2889 19.9527 20.1617 20.7397 21.2963 21.7015C20.3363 22.7508 19.5507 23.6252 18.5907 24.762C17.5433 23.8876 16.6705 23.1006 15.1867 21.789Z" fill="#4D4D5D"/>
<path d="M15.1867 21.789C16.4087 20.7397 17.2815 20.0402 18.3288 19.1658C19.2889 19.9527 20.1617 20.7397 21.2963 21.7015C20.3363 22.7508 19.5507 23.6252 18.5907 24.762C17.5433 23.8876 16.6705 23.1006 15.1867 21.789Z" fill="url(#paint6_linear)" fill-opacity="0.4"/>
<path d="M18.3288 36.2165C17.2815 34.9049 16.5832 34.0305 15.7104 32.8938C16.4959 32.1068 17.2815 31.145 18.3288 30.0957C19.3762 31.0575 20.249 31.932 21.3836 32.8938C20.4235 33.9431 19.5507 34.9049 18.3288 36.2165Z" fill="#4D4D5D"/>
<path d="M18.3288 36.2165C17.2815 34.9049 16.5832 34.0305 15.7104 32.8938C16.4959 32.1068 17.2815 31.145 18.3288 30.0957C19.3762 31.0575 20.249 31.932 21.3836 32.8938C20.4235 33.9431 19.5507 34.9049 18.3288 36.2165Z" fill="url(#paint7_linear)" fill-opacity="0.4"/>
<path d="M21.5582 44.0863C19.1143 44.0863 17.7179 44.0863 15.7977 44.0863C16.6705 43.037 17.2815 42.1626 18.1543 41.1133C19.2016 41.9877 19.9871 42.6872 21.5582 44.0863Z" fill="#4D4D5D"/>
<path d="M21.5582 44.0863C19.1143 44.0863 17.7179 44.0863 15.7977 44.0863C16.6705 43.037 17.2815 42.1626 18.1543 41.1133C19.2016 41.9877 19.9871 42.6872 21.5582 44.0863Z" fill="url(#paint8_linear)" fill-opacity="0.4"/>
<path d="M21.0345 11.0337C20.1617 11.9955 19.4635 12.7825 18.5907 13.6569C17.6306 12.8699 16.8451 12.1704 15.4486 11.0337C17.5433 11.0337 19.1143 11.0337 21.0345 11.0337Z" fill="#4D4D5D"/>
<path d="M21.0345 11.0337C20.1617 11.9955 19.4635 12.7825 18.5907 13.6569C17.6306 12.8699 16.8451 12.1704 15.4486 11.0337C17.5433 11.0337 19.1143 11.0337 21.0345 11.0337Z" fill="url(#paint9_linear)" fill-opacity="0.4"/>
<defs>
<linearGradient id="paint0_linear" x1="27.3764" y1="0" x2="27.3764" y2="54.9289" gradientUnits="userSpaceOnUse">
<stop stop-color="white"/>
<stop offset="1" stop-color="white" stop-opacity="0"/>
</linearGradient>
<linearGradient id="paint1_linear" x1="71.5287" y1="11.9817" x2="71.5287" y2="43.0067" gradientUnits="userSpaceOnUse">
<stop stop-color="white"/>
<stop offset="1" stop-color="white" stop-opacity="0"/>
</linearGradient>
<linearGradient id="paint2_linear" x1="104.911" y1="12.2344" x2="104.911" y2="42.5997" gradientUnits="userSpaceOnUse">
<stop stop-color="white"/>
<stop offset="1" stop-color="white" stop-opacity="0"/>
</linearGradient>
<linearGradient id="paint3_linear" x1="116.197" y1="33.467" x2="116.197" y2="42.2014" gradientUnits="userSpaceOnUse">
<stop stop-color="white"/>
<stop offset="1" stop-color="white" stop-opacity="0"/>
</linearGradient>
<linearGradient id="paint4_linear" x1="115.297" y1="36.0417" x2="115.297" y2="39.3645" gradientUnits="userSpaceOnUse">
<stop stop-color="white"/>
<stop offset="1" stop-color="white" stop-opacity="0"/>
</linearGradient>
<linearGradient id="paint5_linear" x1="32.5978" y1="10.531" x2="32.5978" y2="44.257" gradientUnits="userSpaceOnUse">
<stop stop-color="white"/>
<stop offset="1" stop-color="white" stop-opacity="0"/>
</linearGradient>
<linearGradient id="paint6_linear" x1="18.2415" y1="19.1658" x2="18.2415" y2="24.762" gradientUnits="userSpaceOnUse">
<stop stop-color="white"/>
<stop offset="1" stop-color="white" stop-opacity="0"/>
</linearGradient>
<linearGradient id="paint7_linear" x1="18.547" y1="30.0957" x2="18.547" y2="36.2165" gradientUnits="userSpaceOnUse">
<stop stop-color="white"/>
<stop offset="1" stop-color="white" stop-opacity="0"/>
</linearGradient>
<linearGradient id="paint8_linear" x1="18.6779" y1="41.1133" x2="18.6779" y2="44.0863" gradientUnits="userSpaceOnUse">
<stop stop-color="white"/>
<stop offset="1" stop-color="white" stop-opacity="0"/>
</linearGradient>
<linearGradient id="paint9_linear" x1="18.2415" y1="11.0337" x2="18.2415" y2="13.6569" gradientUnits="userSpaceOnUse">
<stop stop-color="white"/>
<stop offset="1" stop-color="white" stop-opacity="0"/>
</linearGradient>
</defs>
</svg>

<svg xmlns="http://www.w3.org/2000/svg" width="130" height="55" fill="none"><path fill="#4D4D5D" d="M0 23.1c.35-1.05.79-2.1 1.13-3.15A27.56 27.56 0 0130.03.1c12.39.97 23.12 11.2 24.52 23.35 1.57 13.9-6.1 26.23-18.85 30.25-1.22.35-2.45.8-3.67 1.23-3.14 0-6.37 0-9.51 0-.79-.35-1.49-.7-2.27-.96-9.95-3.06-16.32-9.62-19.2-19.5-.26-.96-.7-1.84-.96-2.8C0 28.78 0 25.99 0 23.1zM27.32 51a23.6 23.6 0 0023.83-23.35 23.71 23.71 0 00-23.4-23.79A23.36 23.36 0 004.02 27.21a23.36 23.36 0 0023.3 23.78z"/><path fill="url(#paint0_linear)" fill-opacity=".4" d="M0 23.1c.35-1.05.79-2.1 1.13-3.15A27.56 27.56 0 0130.03.1c12.39.97 23.12 11.2 24.52 23.35 1.57 13.9-6.1 26.23-18.85 30.25-1.22.35-2.45.8-3.67 1.23-3.14 0-6.37 0-9.51 0-.79-.35-1.49-.7-2.27-.96-9.95-3.06-16.32-9.62-19.2-19.5-.26-.96-.7-1.84-.96-2.8C0 28.78 0 25.99 0 23.1zM27.32 51a23.6 23.6 0 0023.83-23.35 23.71 23.71 0 00-23.4-23.79A23.36 23.36 0 004.02 27.21a23.36 23.36 0 0023.3 23.78z"/><path fill="#4D4D5D" d="M57.43 42.95c2.8-2.54 4.98-4.46 7.5-6.65.53.44 1.75 1.4 3.15 2.63 1.3-1.58 2.44-2.98 4.1-4.9-1.4-.87-3.05-2.01-4.97-3.23-.44.35-1.49 1.3-2.88 2.44-1.58-2.1-3.23-4.28-4.9-6.47 1.14-1.05 3.15-2.8 5.42-4.8.7.6 1.83 1.57 3.23 2.8 1.4-1.5 2.62-2.8 4.1-4.38-1.57-1.31-3.14-2.54-4.8-3.85-.52.44-1.66 1.4-3.14 2.63-1.83-2.45-3.75-4.81-5.41-7 5.76 0 12.22-.52 18.59.18 5.15.6 7.24 6.82 4.36 11.1-.52.79-1.3 1.49-1.92 2.19.18.35.26.7.44.78 4.54 2.8 6.1 5.86 4.97 9.8-1.13 4.02-4.27 6.47-9.07 6.64-6.03.26-12.05.09-18.77.09z"/><path fill="url(#paint1_linear)" fill-opacity=".4" d="M57.43 42.95c2.8-2.54 4.98-4.46 7.5-6.65.53.44 1.75 1.4 3.15 2.63 1.3-1.58 2.44-2.98 4.1-4.9-1.4-.87-3.05-2.01-4.97-3.23-.44.35-1.49 1.3-2.88 2.44-1.58-2.1-3.23-4.28-4.9-6.47 1.14-1.05 3.15-2.8 5.42-4.8.7.6 1.83 1.57 3.23 2.8 1.4-1.5 2.62-2.8 4.1-4.38-1.57-1.31-3.14-2.54-4.8-3.85-.52.44-1.66 1.4-3.14 2.63-1.83-2.45-3.75-4.81-5.41-7 5.76 0 12.22-.52 18.59.18 5.15.6 7.24 6.82 4.36 11.1-.52.79-1.3 1.49-1.92 2.19.18.35.26.7.44.78 4.54 2.8 6.1 5.86 4.97 9.8-1.13 4.02-4.27 6.47-9.07 6.64-6.03.26-12.05.09-18.77.09z"/><path fill="#4D4D5D" d="M113.29 28.7c1.83-6.04 3.4-11.2 5.06-16.44 1.92 0 3.58 0 5.85 0-2 6.64-3.93 13.03-5.94 19.5-3.23 0-6.2 0-9.25 0-1.3-2.71-2.62-5.34-4.1-8.31-3.5 6.56-4.71 13.55-9.43 19.15-4.01-9.88-6.8-19.94-9.86-30.25 2.36 0 4.2 0 6.46 0 1.57 4.98 3.14 10.14 4.71 15.21.27.09.53.17.79.17 1.83-5.07 3.67-10.23 5.5-15.12 2.8-1.14 3.58.52 4.36 2.27 1.75 4.37 3.58 8.75 5.85 13.82z"/><path fill="url(#paint2_linear)" fill-opacity=".4" d="M113.29 28.7c1.83-6.04 3.4-11.2 5.06-16.44 1.92 0 3.58 0 5.85 0-2 6.64-3.93 13.03-5.94 19.5-3.23 0-6.2 0-9.25 0-1.3-2.71-2.62-5.34-4.1-8.31-3.5 6.56-4.71 13.55-9.43 19.15-4.01-9.88-6.8-19.94-9.86-30.25 2.36 0 4.2 0 6.46 0 1.57 4.98 3.14 10.14 4.71 15.21.27.09.53.17.79.17 1.83-5.07 3.67-10.23 5.5-15.12 2.8-1.14 3.58.52 4.36 2.27 1.75 4.37 3.58 8.75 5.85 13.82z"/><path fill="#4D4D5D" d="M103.43 42.16c0-1.92-.09-3.23 0-4.46.26-2.62 1.65-4.2 4.45-4.2 5.58 0 11.17-.08 16.84 0 2.88.1 4.2 1.58 4.28 4.3.09 2.44-.87 4.36-3.58 4.36-7.16.09-14.31 0-22 0zm3.92-3.4c.88 2.7 2.45 2.27 4.63 1.3-1.66-.7-2.97-1.13-4.19-1.66 1.22-.87 2.44-1.75 3.5-2.53-2.89-1.4-4.11-.7-3.94 2.88zm6.29-2.54l.17-.18c-.26.96-1.04 2.19-.78 2.97 1.48 3.68 4.45-.17 6.28.97.79-1.58 1.66-3.06 2.8-5.34-1.75.79-2.89 1.31-4.1 1.84-1.14-1.23-2.63-2.36-4.37-.26zm12.48 3.67c.44-2.01 1.22-4.29-1.83-4.81.7 1.84 1.3 3.32 1.83 4.8z"/><path fill="url(#paint3_linear)" fill-opacity=".4" d="M103.43 42.16c0-1.92-.09-3.23 0-4.46.26-2.62 1.65-4.2 4.45-4.2 5.58 0 11.17-.08 16.84 0 2.88.1 4.2 1.58 4.28 4.3.09 2.44-.87 4.36-3.58 4.36-7.16.09-14.31 0-22 0zm3.92-3.4c.88 2.7 2.45 2.27 4.63 1.3-1.66-.7-2.97-1.13-4.19-1.66 1.22-.87 2.44-1.75 3.5-2.53-2.89-1.4-4.11-.7-3.94 2.88zm6.29-2.54l.17-.18c-.26.96-1.04 2.19-.78 2.97 1.48 3.68 4.45-.17 6.28.97.79-1.58 1.66-3.06 2.8-5.34-1.75.79-2.89 1.31-4.1 1.84-1.14-1.23-2.63-2.36-4.37-.26zm12.48 3.67c.44-2.01 1.22-4.29-1.83-4.81.7 1.84 1.3 3.32 1.83 4.8z"/><path fill="#4D4D5D" d="M113.64 36.22c.26 0 .61-.1.87.08.87.53 1.66 1.14 2.44 1.75-.43.44-.95.88-1.4 1.31a42.6 42.6 0 01-1.74-2.44c-.17-.18-.08-.53-.08-.88l-.1.18z"/><path fill="url(#paint4_linear)" fill-opacity=".4" d="M113.64 36.22c.26 0 .61-.1.87.08.87.53 1.66 1.14 2.44 1.75-.43.44-.95.88-1.4 1.31a42.6 42.6 0 01-1.74-2.44c-.17-.18-.08-.53-.08-.88l-.1.18z"/><path fill="#4D4D5D" d="M23.13 44.09c1.83-2.01 3.05-3.33 4.36-4.73 1.49 1.23 2.62 2.19 4.28 3.5 1.13-1.48 2.18-2.8 3.67-4.63-1.23-.79-2.8-1.84-4.72-3.06-.43.35-1.66 1.3-2.88 2.27-1.48-1.49-2.88-3.06-4.54-4.72 1.31-1.05 2.88-2.45 4.72-4.02.7.6 1.92 1.57 3.4 2.88 1.31-1.4 2.53-2.8 3.67-4.02-1.23-1.4-2.36-2.8-3.67-4.28-1.57 1.3-2.7 2.27-4.19 3.5-1.4-1.58-2.8-3.07-4.1-4.64 1.57-1.4 3.23-2.89 5.06-4.46.79.61 1.92 1.57 3.5 2.88 1.3-1.4 2.61-2.7 3.66-3.84-1.4-1.58-2.62-2.89-4.02-4.37-1.22 1.04-2.27 1.92-3.75 3.23-1.4-1.31-2.8-2.62-4.71-4.46 4.71-.7 8.9-.96 12.83.26 6.28 2.01 8.11 8.83 4.01 13.9-.52.62-1.13 1.23-1.83 2.02.79.87 1.66 1.66 2.36 2.45C44.6 35.08 41.8 43.04 34.9 44c-3.66.52-7.42.09-11.78.09z"/><path fill="url(#paint5_linear)" fill-opacity=".4" d="M23.13 44.09c1.83-2.01 3.05-3.33 4.36-4.73 1.49 1.23 2.62 2.19 4.28 3.5 1.13-1.48 2.18-2.8 3.67-4.63-1.23-.79-2.8-1.84-4.72-3.06-.43.35-1.66 1.3-2.88 2.27-1.48-1.49-2.88-3.06-4.54-4.72 1.31-1.05 2.88-2.45 4.72-4.02.7.6 1.92 1.57 3.4 2.88 1.31-1.4 2.53-2.8 3.67-4.02-1.23-1.4-2.36-2.8-3.67-4.28-1.57 1.3-2.7 2.27-4.19 3.5-1.4-1.58-2.8-3.07-4.1-4.64 1.57-1.4 3.23-2.89 5.06-4.46.79.61 1.92 1.57 3.5 2.88 1.3-1.4 2.61-2.7 3.66-3.84-1.4-1.58-2.62-2.89-4.02-4.37-1.22 1.04-2.27 1.92-3.75 3.23-1.4-1.31-2.8-2.62-4.71-4.46 4.71-.7 8.9-.96 12.83.26 6.28 2.01 8.11 8.83 4.01 13.9-.52.62-1.13 1.23-1.83 2.02.79.87 1.66 1.66 2.36 2.45C44.6 35.08 41.8 43.04 34.9 44c-3.66.52-7.42.09-11.78.09z"/><path fill="#4D4D5D" d="M15.19 21.79c1.22-1.05 2.1-1.75 3.14-2.62.96.78 1.83 1.57 2.97 2.53a95.97 95.97 0 00-2.7 3.06c-1.06-.87-1.93-1.66-3.41-2.97z"/><path fill="url(#paint6_linear)" fill-opacity=".4" d="M15.19 21.79c1.22-1.05 2.1-1.75 3.14-2.62.96.78 1.83 1.57 2.97 2.53a95.97 95.97 0 00-2.7 3.06c-1.06-.87-1.93-1.66-3.41-2.97z"/><path fill="#4D4D5D" d="M18.33 36.22c-1.05-1.32-1.75-2.19-2.62-3.33.79-.78 1.57-1.75 2.62-2.8 1.05.97 1.92 1.84 3.05 2.8-.96 1.05-1.83 2.01-3.05 3.33z"/><path fill="url(#paint7_linear)" fill-opacity=".4" d="M18.33 36.22c-1.05-1.32-1.75-2.19-2.62-3.33.79-.78 1.57-1.75 2.62-2.8 1.05.97 1.92 1.84 3.05 2.8-.96 1.05-1.83 2.01-3.05 3.33z"/><path fill="#4D4D5D" d="M21.56 44.09c-2.45 0-3.84 0-5.76 0 .87-1.05 1.48-1.93 2.35-2.98 1.05.88 1.84 1.58 3.4 2.98z"/><path fill="url(#paint8_linear)" fill-opacity=".4" d="M21.56 44.09c-2.45 0-3.84 0-5.76 0 .87-1.05 1.48-1.93 2.35-2.98 1.05.88 1.84 1.58 3.4 2.98z"/><path fill="#4D4D5D" d="M21.03 11.03c-.87.97-1.57 1.75-2.44 2.63-.96-.79-1.74-1.49-3.14-2.63 2.1 0 3.66 0 5.58 0z"/><path fill="url(#paint9_linear)" fill-opacity=".4" d="M21.03 11.03c-.87.97-1.57 1.75-2.44 2.63-.96-.79-1.74-1.49-3.14-2.63 2.1 0 3.66 0 5.58 0z"/><defs><linearGradient id="paint0_linear" x1="27.376" x2="27.376" y1="0" y2="54.929" gradientUnits="userSpaceOnUse"><stop stop-color="#fff"/><stop offset="1" stop-color="#fff" stop-opacity="0"/></linearGradient><linearGradient id="paint1_linear" x1="71.529" x2="71.529" y1="11.982" y2="43.007" gradientUnits="userSpaceOnUse"><stop stop-color="#fff"/><stop offset="1" stop-color="#fff" stop-opacity="0"/></linearGradient><linearGradient id="paint2_linear" x1="104.911" x2="104.911" y1="12.234" y2="42.6" gradientUnits="userSpaceOnUse"><stop stop-color="#fff"/><stop offset="1" stop-color="#fff" stop-opacity="0"/></linearGradient><linearGradient id="paint3_linear" x1="116.197" x2="116.197" y1="33.467" y2="42.201" gradientUnits="userSpaceOnUse"><stop stop-color="#fff"/><stop offset="1" stop-color="#fff" stop-opacity="0"/></linearGradient><linearGradient id="paint4_linear" x1="115.297" x2="115.297" y1="36.042" y2="39.364" gradientUnits="userSpaceOnUse"><stop stop-color="#fff"/><stop offset="1" stop-color="#fff" stop-opacity="0"/></linearGradient><linearGradient id="paint5_linear" x1="32.598" x2="32.598" y1="10.531" y2="44.257" gradientUnits="userSpaceOnUse"><stop stop-color="#fff"/><stop offset="1" stop-color="#fff" stop-opacity="0"/></linearGradient><linearGradient id="paint6_linear" x1="18.241" x2="18.241" y1="19.166" y2="24.762" gradientUnits="userSpaceOnUse"><stop stop-color="#fff"/><stop offset="1" stop-color="#fff" stop-opacity="0"/></linearGradient><linearGradient id="paint7_linear" x1="18.547" x2="18.547" y1="30.096" y2="36.217" gradientUnits="userSpaceOnUse"><stop stop-color="#fff"/><stop offset="1" stop-color="#fff" stop-opacity="0"/></linearGradient><linearGradient id="paint8_linear" x1="18.678" x2="18.678" y1="41.113" y2="44.086" gradientUnits="userSpaceOnUse"><stop stop-color="#fff"/><stop offset="1" stop-color="#fff" stop-opacity="0"/></linearGradient><linearGradient id="paint9_linear" x1="18.241" x2="18.241" y1="11.034" y2="13.657" gradientUnits="userSpaceOnUse"><stop stop-color="#fff"/><stop offset="1" stop-color="#fff" stop-opacity="0"/></linearGradient></defs></svg>
